X: 43540
T: You Rogue You Dar'n't Meddle Me
R: reel
M: 4/4
K: Adorian
AB|:cABG AGEF|G2Bc dBGB|cABG AGED|EAAB A2 AB:|
cdef g2ef|gage dBGB|cdef gfed|eaab a4|
cdef g2 ef|gage dBGB|cABG AGED|EAAB A4||

